X:2
T:The Beginning
C:Jackie Tolliday-Bailey
M:4/4
L:1/8
K:Em
G2B2F2B2 | GFGA BAGB | G2B2 F2B2 | GFEF E4 | 
G2B2F2B2 | GFGA BAGF | G2B2 F2B2 | EFGF E4 ||
efga bgeB | efga f2 B2 |efga bgeB |efge f4 | 
efga bgeB | dBAF B4 | BcBA BGEB,| dBAG E4 ||

